X: 1
T: Patch Tanz
O: Hassidic
M: 2/4
L: 1/16
K: F#m
 | "F#m"A4 ABBA | ABBA "C7"AGGF | "F#m"A4 ABBA | "C7"AGGF "F#m"F4 \
 | "F#m"[A4c] [Ac][Bd][Bd][Ac] | [Ac][Bd][Bd][Ac] "C7"[Ac][GB][GB][FA] | "F#m"[A4c] [Ac][Bd][Bd][Ac] | "C7"[Ac][GB][GB][FA] "F#m"[F4A] ||
|| "E7"BcdB "A"c4 | .[c2A] .[c2A] .[c2A] z2 | "E7"GABA B4 | "E".[G2E] "B7".[A2F] "E".[B2G] z2 \
 | "E7"edcB "A"c4 | .[c2A] .[c2A] .[c2A] z2 | "E7"GABA B4 | "E".[G2E] "B7".[A2F] "E".[B2G] z2 ||
|| "E7"EFG2 "A"ABc2 | "C7"BAG2 "F#m"F4 | "A"AEEA "G"A=GGF | "F#m"F8 \
 | "E7"EFG2 "A"ABc2 | edc2 "Bm"B4 | "A"AEEA "G"A=GGF | "F#m"F8 |]
P: Bm
K: Bm
 | "Bm"d4 deed | deed "F7"dccB | "Bm"d4 deed | "F7"dccB "Bm"B4 \
 | "Bm"[d4F] [dF][eG][eG][dF] | [dF][eG][eG][dF] "F7"[dF][cE][cE][BD] | "Bm"[d4F] [dF][eG][eG][dF] | "F7"[dF][cE][cE][BD] "Bm"[B4D] ||
|| "A7"efge "D"f4 | .[f2d] .[f2d] .[f2d] z2 | "A7"cded e4 | "A".[c2A] "E7".[d2B] "A".[e2c] z2 \
 | "A7"agfe "D"f4 | .[f2d] .[f2d] .[f2d] z2 | "A7"cded e4 | "A".[c2A] "E7".[d2B] "A".[e2c] z2 ||
|| "A7"ABc2 "D"def2 | "F7"edc2 "Bm"B4 | "D"dAAd "C"d=ccB | "Bm"B8 \
 | "A7"ABc2 "D"def2 | agf2 "Em"e4 | "D"dAAd "C"d=ccB | "Bm"B8 |]

%%sep 1 1 500

